!!!COM: Beethoven, Ludwig van
!!!CDT: 1770///-1827///
!!!OTL: Piano Sonata no. 15 in D major
!!!OTP: pastoral
!!!OPS: 28
!!!OMV: 1
!!!OMD: Allegro
**kern	**kern	**dynam
*staff2	*staff1	*staff1/2
*Ipiano	*Ipiano	*Ipiano
*>[I,A,A1,A,A2,B]	*>[I,A,A1,A,A2,B]	*>[I,A,A1,A,A2,B]
*>norep[I,A,A2,B]	*>norep[I,A,A2,B]	*>norep[I,A,A2,B]
*>I	*>I	*>I
*clefF4	*clefG2	*clefG2
*k[f#c#]	*k[f#c#]	*k[f#c#]
*D:	*D:	*D:
*M3/4	*M3/4	*M3/4
*MM240	*MM240	*MM240
=1-	=1-	=1-
4DD/	2.r	.
4DD/	.	.
4DD/	.	.
=2!|:	=2!|:	=2!|:
*>A	*>A	*>A
*	*^	*
4DD/	2.a/	2.cn\ 2.f#\	p
4DD/	.	.	.
4DD/	.	.	.
*	*v	*v	*
=3	=3	=3
*	*^	*
4DD/	(4a/	[2.B\ [2.d\	.
4DD/	[2g/	.	.
4DD/	.	.	.
=4	=4	=4	=4
*^	*	*	*
2r	4DD\	2g/]	2B\] 2d\]	.
.	4DD\	.	.	.
4G/ 4B/	4DD\	8f#/L	4r	.
.	.	8e/J)	.	.
*	*	*v	*v	*
=5	=5	=5	=5
2.E/ 2.G/	4DD\	(2d/	.
.	4DD\	.	.
.	4DD\	4c#/)	.
=6	=6	=6	=6
2.C#/ 2.G/	4DD\	(2B/	.
.	4DD\	.	.
.	4DD\	4A/)	.
=7	=7	=7	=7
2.D/ 2.F#/	4DD\	(2.A/	.
.	4DD\	.	.
.	4DD\	.	.
=8	=8	=8	=8
2.FF#/	4DD\	2.A/ 2.d/	.
.	4DD\	.	.
.	4DD\	.	.
=9	=9	=9	=9
2.AA/	4DD\	2c#/ 2e/	.
.	4DD\	.	.
.	4DD\	8d/ 8f#/L	.
.	.	8e/ 8g/J	.
=10	=10	=10	=10
4D/	4DD\	4d'/) 4f#'/	.
4r	4D\	4r	.
4r	4D\	4r	.
=11	=11	=11	=11
(2.d/	4D\	2.r	.
.	4D\	.	.
.	4D\	.	.
=12	=12	=12	=12
*	*	*^	*
2.F#/	4D\	2.aa/	2.ccn\	.
.	4D\	.	.	.
.	4D\	.	.	.
=13	=13	=13	=13	=13
2.G/	4D\	4aa/	2.b\	.
.	4D\	[2gg/	.	.
.	4D\	.	.	.
=14	=14	=14	=14	=14
2.B/	4D\	2gg/]	2.g\	.
.	4D\	.	.	.
.	4D\	8ff#/L	.	.
.	.	8ee/J	.	.
=15	=15	=15	=15	=15
2.e/	4D\	2dd/	2.g\	.
.	4D\	.	.	.
.	4D\	4cc#/	.	.
=16	=16	=16	=16	=16
2.c#/	4D\	2b/	2.g\	.
.	4D\	.	.	.
.	4D\	4a/	.	.
=17	=17	=17	=17	=17
2.d/	4D\	2.a/	2.f#\	.
.	4D\	.	.	.
.	4D\	.	.	.
*	*	*v	*v	*
=18	=18	=18	=18
2.F#/	4D\	2.a\ 2.dd\	.
.	4D\	.	.
.	4D\	.	.
=19	=19	=19	=19
2.A/	4D\	2cc#\ 2ee\	.
.	4D\	.	.
.	4D\	8dd\ 8ff#\L	.
.	.	8ee\ 8gg\J	.
=20	=20	=20	=20
4d'/)	4D\	4dd'\ 4ff#'\	.
4r	4D\	4r	.
4r	4D\	4r	.
=21	=21	=21	=21
4D/	[2.FF#\	[2.A/ [2.d/	<
4D/	.	.	.
4D/	.	.	.
=22	=22	=22	=22
4D/	(4FF#\]	4A/] (4d/]	.
4D/	4GG\	4B/ 4e/	.
4D/	4AA\)	4cn/ 4f#/)	.
=23	=23	=23	=23
*	*	*^	*
4D/	[2.BB\	(4a/	[2.d\	.
4D/	.	[2g/	.	>
4D/	.	.	.	.
=24	=24	=24	=24	=24
4D/	2BB\]	2g/]	2d\]	.
4D/	.	.	.	.
4D/	4AA\	[4f#/)	4cn\	p
=25	=25	=25	=25	=25
4D/	2GG\	(4f#/]	2.B\	.
4D/	.	4e/	.	.
4E/	4GG#\	[4d/)	.	.
*	*	*v	*v	*
=26	=26	=26	=26
4E/	2AA\	(4d/]	.
4E/	.	4c#/	.
4Gn/	4AA\	[4A/)	.
=27	=27	=27	=27
4F#/	4D\	(8A/L]	.
.	.	8d/	.
4D/	2r	8f#/	.
.	.	8a/	.
4D/	.	8dd/	.
.	.	8ff#/J)	.
*v	*v	*	*
=28	=28	=28
4D/	8aa\L	.
.	8ff#\J	.
4D/	12dd/L	.
.	12a/	.
.	12f#/J	.
4D/	12a/L	.
.	12g/	.
.	12e/J	<
=29	=29	=29
*^	*	*
4D/	[2.FF#\	[2.d/ [2.dd/	.
4D/	.	.	.
4D/	.	.	.
=30	=30	=30	=30
4D/	4FF#\]	4d/] (4dd/]	.
4D/	4GG\	4e/ 4ee/	.
4D/	4AA\	4f#\ 4ff#\	.
=31	=31	=31	=31
4D/	[2.BB\	4a\ 4aa\	.
4D/	.	[2g\ [2gg\	>
4D/	.	.	.
=32	=32	=32	=32
4D/	2BB\]	2g\] 2gg\]	.
4D/	.	.	.
4D/	4AA\	[4f#\ [4ff#\	p
=33	=33	=33	=33
4D/	2GG\	4f#\] 4ff#\]	.
4D/	.	4e/ 4ee/	.
4E/	4GG#\	[4d/ [4dd/)	.
=34	=34	=34	=34
4E/	2AA\	4d/] 4dd/]	.
4E/	.	4c#/ 4cc#/	.
4Gn/	4AA\	[4A/ [4a/	.
=35	=35	=35	=35
4F#/	4D\	(8A/] 8a/L]	.
.	.	8d/	.
2r	4D\	8f#/	.
.	.	8a/	.
.	4D\	8dd/	.
.	.	8ff#/J)	.
=36	=36	=36	=36
4D/	2r	4a\ (4aa\	<
4D/	.	4g\ 4gg\	.
4D/	4FF#\	[4f#\ [4ff#\	.
=37	=37	=37	=37
4D/	2GG\	4f#\] 4ff#\]	.
4D/	.	4e/ 4ee/	.
4E/	4GG#\	[4d/ [4dd/	.
=38	=38	=38	=38
4E/	2AA\	4d/] 4dd/]	.
4E/	.	4c#/ 4cc#/	.
4Gn/	4AA\	4e/ 4ee/	.
=39	=39	=39	=39
4F#'/	4D'\	4d'/ 4dd'/)	.
2r	4r	4r	.
.	4r	4r	.
=40	=40	=40	=40
*	*	*^	*
[2.A/	2.D\	(2.b/	2.f#\	.
=41	=41	=41	=41	=41
2.A/]	2.C#\	[2.a/	2.e\	.
=42	=42	=42	=42	=42
[2.E/	2.BB\	4a/]	4d\	.
.	.	8g#/L	4r	.
.	.	8b/J	.	.
.	.	[4dd/)	4r	.
*	*	*v	*v	*
=43	=43	=43	=43
4E/]	4AA\	(4dd\]	.
4r	2r	4cc#\)	.
4r	.	4r	.
=44	=44	=44	=44
*	*	*^	*
[2.e/	2.A\	(2.ff#/	2.cc#\	.
=45	=45	=45	=45	=45
2.e/]	2.G#\	[2.ee/	2.b\	.
=46	=46	=46	=46	=46
[2.B/	2.F#\	4ee/]	4a\	.
.	.	8dd#/L	4r	.
.	.	8ff#/J	.	.
.	.	[4aa/)	4r	.
*	*	*v	*v	*
=47	=47	=47	=47
4B/]	4E\	(4aa\]	.
2r	4r	4gg#\)	.
.	4r	4r	.
*v	*v	*	*
=48	=48	=48
*	*^	*
(2.D\ [2.A\	8r	[2.f#\	.
.	8b/L	.	.
.	8a#/	.	.
.	8b/	.	.
.	8cc#/	.	.
.	8b/J	.	.
=49	=49	=49	=49
2.C#\ 2.A\]	2.an/	8f#\L]	.
.	.	8e\	.
.	.	8d#\	.
.	.	8e\	.
.	.	8f#\	.
.	.	8e\J	.
=50	=50	=50	=50
*^	*	*	*
[2.E/	2.BB\	8g#/L	4dn\	.
.	.	8a/	.	.
.	.	8b/	4r	.
.	.	8cc#/	.	.
.	.	8dd/	4r	.
.	.	8ee/J	.	.
*	*	*v	*v	*
=51	=51	=51	=51
4E/]	4AA\)	8dd/L	.
.	.	8cc#/	.
4r	2r	8b/	.
.	.	8a/	.
4r	.	8g#/	.
.	.	8a/J	.
=52	=52	=52	=52
*	*	*^	*
[2.e/	(2.A\	8r	[2.cc#\	.
.	.	(8ff#/L	.	.
.	.	8ee#/	.	.
.	.	8ff#/	.	.
.	.	8gg#/	.	.
.	.	8ff#/J)	.	.
=53	=53	=53	=53	=53
2.e/]	2.G#\	2.een/	8cc#\L]	.
.	.	.	8b\	.
.	.	.	8a#\	.
.	.	.	8b\	.
.	.	.	8cc#\	.
.	.	.	8b\J	.
*v	*v	*	*	*
=54	=54	=54	=54
2.F#\ 2.A\ [2.B\	8dd#/L	4an\	.
.	8ee/	.	.
.	8ff#/	4r	.
.	8gg#/	.	.
.	8aa/	4r	.
.	8bb/J	.	.
*	*v	*v	*
=55	=55	=55
4E\) 4G#\ 4B\]	8aa\L	.
.	8gg#\	.
4r	8ff#\	.
.	8ee\	.
4r	8dd#\	.
.	8ee\J	.
=56	=56	=56
2.FF#/ 2.AA/ [2.BB/	(8dd#\L	.
.	8ee\	.
.	8ff#\	.
.	8gg#\	.
.	8aa\	.
.	8bb\J	.
=57	=57	=57
4EE/ 4GG#/ 4BB/]	8aa\L	.
.	8gg#\	.
4r	8ff#\	.
.	8ee\	.
4r	8dd#\	.
.	8ee\J)	.
=58	=58	=58
(2.F#\ 2.A\ [2.B\	8dd#\L	f
.	8ee\	.
.	8ff#\	.
.	8gg#\	.
.	8aa\	.
.	8bb\J	.
=59	=59	=59
4E\) 4G#\ 4B\]	8aa\L	.
.	8gg#\	.
4r	8ff#\	.
.	8ee\	.
4r	8dd#\	.
.	8cc#\J	.
=60	=60	=60
2.r	8b/L	>
.	8a/	.
.	8g#/	.
.	8f#/	.
.	8e/	.
.	8d#/J	.
=61	=61	=61
2.r	[2.e/	p
=62	=62	=62
2.r	2.e/]	.
=63	=63	=63
4r	2.G#/ 2.B/ (2.e#/	pp
4C#'/	.	.
4C#'/	.	.
=64	=64	=64
4r	2.A/ 2.c#/ 2.f#/	.
4FF#'/	.	.
4FF#'/	.	.
=65	=65	=65
4r	2.B/ 2.e#/ 2.g#/	.
4CC#'/	.	.
4CC#'/	.	.
=66	=66	=66
4r	2.c#/ 2.f#/ 2.a/)	.
4FFF#/	.	.
4FFF#'/	.	.
=67	=67	=67
4r	2.c#/ 2.e/ 2.gn/ (2.a#/	.
4F#'\	.	.
4F#'\	.	.
=68	=68	=68
*	*^	*
4r	4b/	2.d\ 2.f#\	.
4BB'/	4cc#/	.	.
4BB'/	4dd'/)	.	.
*	*v	*v	*
=69	=69	=69
4r	(2c#/ 2e/ 2an/	.
4E'\	.	.
4EE'/	4B/) 4d/ 4g#/	.
=70	=70	=70
*	*^	*
8AA'\L	8a'/L	8c#\	.
(8c#\	8cc#/	8r	.
8B\	8b/	2r	.
8A\	8a/	.	.
8G#\	8g#/	.	.
8F#\J)	8f#/J	.	.
*	*v	*v	*
=71	=71	=71
*^	*	*
2.E#/	4r	(2.e#/	<
.	4C#\	.	.
.	4C#\	.	.
=72	=72	=72	=72
2.F#/	4r	2.f#/	.
.	4C#\	.	.
.	4C#\	.	.
=73	=73	=73	=73
2.E#/ 2.G#/	4r	2.e#/ 2.g#/	.
.	4C#\	.	.
.	4C#\	.	.
=74	=74	=74	=74
2.F#/ 2.A/	4r	2.f#/ 2.a/	.
.	4C#\	.	.
.	4C#\	.	.
=75	=75	=75	=75
2.F#/ 2.B/	4r	2.f#/ 2.b/	.
.	4D\	.	.
.	4D\	.	.
=76	=76	=76	=76
2.F#/ 2.B#/	4r	2.f#/ 2.b#/)	.
.	4D\	.	.
.	4D\	.	.
=77	=77	=77	=77
*	*	*^	*
8E#/L	[2.C#\	[2.cc#/	8e#\L	p
8G#/	.	.	8g#\	.
8E#/	.	.	8e#\	.
8G#/	.	.	8g#\	.
8E#/	.	.	8e#\	.
8G#/J	.	.	8g#\J	.
=78	=78	=78	=78	=78
8E#/L	2C#\]	2cc#/]	8e#\L	.
8G#/	.	.	8g#\	.
8E#/	.	.	8e#\	.
8G#/	.	.	8g#\	.
8F#/	4D\	(4b#/	8f#\	.
8G#/J	.	.	8g#\J	.
=79	=79	=79	=79	=79
8E#/L	2C#\	2cc#/	8e#\L	.
8G#/	.	.	8g#\	.
8E#/	.	.	8e#\	.
8G#/	.	.	8g#\	.
8F#/	4D\	4b#/	8f#\	.
8G#/J	.	.	8g#\J	.
=80	=80	=80	=80	=80
8E#/L	2C#\	2cc#/	8e#\L	.
8G#/	.	.	8g#\	.
8E#/	.	.	8e#\	.
8G#/	.	.	8g#\	.
8F#/	4D\	4b#/)	8f#\	.
8G#/J	.	.	8g#\J	.
=81	=81	=81	=81	=81
8E#/L	2.C#\	[2.cc#/	8e#\L	.
(8G#/	.	.	8g#\	.
8E#/	.	.	8e#\	.
8G#/	.	.	8g#\	.
8E#/	.	.	8e#\	.
8G#/J	.	.	8g#\J	.
=82	=82	=82	=82	=82
8E#/L	2C#\)	2cc#/]	8e#\L	.
8G#/	.	.	8g#\	.
8E#/	.	.	8e#\	.
8G#/	.	.	8g#\	.
8E#/	(4AA#\	4cc#/	8e#\	.
8G#/J	.	.	8g#\J	.
=83	=83	=83	=83	=83
8E#/L	2BB\	2dd/	8e#\L	.
8G#/	.	.	8g#\	.
8E#/	.	.	8e#\	.
8G#/	.	.	8g#\	.
8E#/	4AA#\	4cc#/	8e#\	.
8G#/J	.	.	8g#\J	.
=84	=84	=84	=84	=84
8E#/L	2BB\	2dd/	8e#\L	.
8G#/	.	.	8g#\	.
8E#/	.	.	8e#\	.
8G#/	.	.	8g#\	.
8E#/	4AA#\)	4cc#/	8e#\	.
8G#/J	.	.	8g#\J	.
=85	=85	=85	=85	=85
8E#/L	[2.BB\	[2.dd/	8e#\L	.
8G#/	.	.	8g#\	.
8E#/	.	.	8e#\	.
8G#/	.	.	8g#\	.
8E#/	.	.	8e#\	.
8G#/J	.	.	8g#\J	.
=86	=86	=86	=86	=86
8E#/L	2.BB\]	2.dd/]	8e#\L	.
8G#/	.	.	8g#\	.
8E#/	.	.	8e#\	.
8G#/	.	.	8g#\	.
8E#/	.	.	8e#\	.
8G#/J	.	.	8g#\J	.
=87	=87	=87	=87	=87
8En/L	2BB\	(2dd/	8en\L	<
8G#/	.	.	8g#\	.
8E/	.	.	8e\	.
8G#/	.	.	8g#\	.
8E/	4AA#\	4cc#/	8e\	.
8G#/J	.	.	8g#\J	.
=88	=88	=88	=88	=88
8E/L	2BB\	2dd/	8e\L	.
8G#/	.	.	8g#\	.
8E/	.	.	8e\	.
8G#/	.	.	8g#\	.
8E/	4AA#\	4cc#/)	8e\	.
8G#/J	.	.	8g#\J	.
=89	=89	=89	=89	=89
8E/L	[2.BB\	[2.dd/	8e\L	.
8G#/	.	.	8g#\	.
8E/	.	.	8e\	.
8G#/	.	.	8g#\	.
8E/	.	.	8e\	.
8G#/J	.	.	8g#\J	.
=90	=90	=90	=90	=90
8E/L	2BB\]	2dd/]	8e\L	.
8G#/	.	.	8g#\	.
8E/	.	.	8e\	.
8G#/	.	.	8g#\	.
8E/	4BB\	(4dd/	8d\	p
8G#/J	.	.	8g#\J	.
=91	=91	=91	=91	=91
8A/L	2AA\	2cc#/	8c#\L	.
8E/	.	.	8e\	.
8A/	.	.	8c#\	.
8E/	.	.	8e\	.
8B/	4BB\	4dd/	8d\	.
8E/J	.	.	8e\J	.
=92	=92	=92	=92	=92
8A/L	2AA\	2cc#/	8c#\L	.
8E/	.	.	8e\	.
8A/	.	.	8c#\	.
8E/	.	.	8e\	.
8G#/	4GG#\	4b/)	8B\	.
8C#/J	.	.	8e#\J	.
=93	=93	=93	=93	=93
8F#/L	[2.FF#\	[2.a/	8A\L	.
8C#/	.	.	8c#\	.
8F#/	.	.	8A\	.
8C#/	.	.	8c#\	.
8F#/	.	.	8A\	.
8C#/J	.	.	8c#\J	.
=94	=94	=94	=94	=94
8F#/L	2FF#\]	2a/]	8A\L	.
8C#/	.	.	8c#\	.
8F#/	.	.	8A\	.
8C#/	.	.	8c#\	.
8G#/	4GG#\	(4b/	8B\	.
8C#/J	.	.	8c#\J	.
=95	=95	=95	=95	=95
8F#/L	2FF#\	2a/	8A\L	.
8C#/	.	.	8c#\	.
8F#/	.	.	8A\	.
8C#/	.	.	8c#\	.
8G#/	4GG#\	4b/	8B\	.
8C#/J	.	.	8c#\J	.
=96	=96	=96	=96	=96
8F#/L	2FF#\	2a/	8A\L	.
8C#/	.	.	8c#\	.
8F#/	.	.	8A\	.
8C#/	.	.	8c#\	.
8En/	4EEn\	4gn/)	8G\	.
8AA/J	.	.	8c#\J	.
=97	=97	=97	=97	=97
8D/L	[2.DD\	[2.f#/	8F#\L	.
8AA/	.	.	8A\	.
8D/	.	.	8F#\	.
8AA/	.	.	8A\	.
8D/	.	.	8F#\	.
8AA/J	.	.	8A\J	.
=98	=98	=98	=98	=98
8D/L	2DD\]	2f#/]	8F#\L	<
8AA/	.	.	8A\	.
8D/	.	.	8F#\	.
8AA/	.	.	8A\	.
8E/	4EE\	(4g/	8G\	.
8AA/J	.	.	8A\J	.
=99	=99	=99	=99	=99
8D/L	2DD\	2f#/	8F#\L	.
8AA/	.	.	8A\	.
8D/	.	.	8F#\	.
8AA/	.	.	8A\	.
8E/	4EE\	4g/	8G\	.
8AA/J	.	.	8A\J	.
=100	=100	=100	=100	=100
8D/L	2DD\	2f#/	8F#\L	.
8AA/	.	.	8A\	.
8D/	.	.	8F#\	.
8AA/	.	.	8A\	.
8BB/	4BBB\	4g#/	8G#\	.
8EE/J	.	.	8d\J	.
=101	=101	=101	=101	=101
8C#/L	2CC#\	2a/	8A\L	.
8EE/	.	.	8e\	.
8C#/	.	.	8A\	.
8EE/	.	.	8e\	.
8GG#/	4GGG#\	4b/	8B\	.
8EE/J	.	.	8e\J	.
=102	=102	=102	=102	=102
8AA/L	2AAA\	2cc#/	8c#\L	.
8EE/	.	.	8e\	.
8AA/	.	.	8c#\	.
8EE/	.	.	8e\	.
8FF#/	4FFF#\	4dd/)	8d\	.
8DD/J	.	.	8a\J	.
*v	*v	*	*	*
*	*v	*v	*
=103	=103	=103
2.CC#/ 2.AA/ 2.C#/	2.e/ 2.a/ 2.ee/	.
=104	=104	=104
2.r	(12ee\L	.
.	12dd#\	.
.	12ff#\J)	.
.	(12ee\L	.
.	12ddn\	.
.	12cc#\J)	.
.	(20b/LL	.
.	20a/	.
.	20g#/	.
.	20f#/	.
.	20e/JJ)	.
=105	=105	=105
2.F#\ 2.A\ 2.d#\	2.aa\	.
=106	=106	=106
2.r	(12aa\L	.
.	12gg#\	.
.	12bb\J)	.
.	(12aa\L	.
.	12gg#\	.
.	12ff#\J	.
.	(20ee\LL)	.
.	20dd#\	.
.	20cc#\	.
.	20b\	.
.	20a\JJ)	.
=107	=107	=107
4E\ 4A\ 4c#\ 4e\	(12aa\L	f
.	12gg#\	.
.	12bb\J)	.
4r	(12aa\L	.
.	12gg#\	.
.	12ff#\J)	.
4r	(20ee\LL	.
.	20ddn\	.
.	20cc#\	.
.	20b\	.
.	20a\JJ)	.
=108	=108	=108
4E\ 4G#\ 4B\ 4d\	(12ee\L	f
.	12dd#\	.
.	12ff#\J)	.
4r	(12ee\L	.
.	12ddn\	.
.	(12cc#\J)	.
4r	20b/LL	.
.	20a/	.
.	20g#/	.
.	20f#/	.
.	20e/JJ)	.
=109	=109	=109
*^	*^	*
8c#/L	[2.C#\	[2.ee/	8e\L	p
8A/	.	.	8a\	.
8c#/	.	.	8e\	.
8A/	.	.	8a\	.
8c#/	.	.	8e\	.
8A/J	.	.	8a\J	.
=110	=110	=110	=110	=110
8c#/L	2C#\]	2ee/]	8e\L	.
8A/	.	.	8a\	.
8c#/	.	.	8e\	.
8A/	.	.	8a\	.
8B#/	4BB#\	(4dd#/	8d#\	.
8A/J	.	.	8a\J	.
=111	=111	=111	=111	=111
8c#/L	2C#\	2ee/	8e\L	.
8A/	.	.	8a\	.
8c#/	.	.	8e\	.
8A/	.	.	8a\	.
8d/	4D\	4ff#/	8f#\	.
8A/J	.	.	8a\J	.
=112	=112	=112	=112	=112
8c#/L	2C#\	2ee/	8e\L	.
8A/	.	.	8a\	.
8c#/	.	.	8e\	.
8A/	.	.	8a\	.
8Bn/	4BBn\	4ddn/)	8dn\	.
8E/J	.	.	8g#\J	.
=113	=113	=113	=113	=113
8A/L	[2.AA\	[2.cc#/	8c#\L	.
8E/	.	.	8e\	.
8A/	.	.	8c#\	.
8E/	.	.	8e\	.
8A/	.	.	8c#\	.
8E/J	.	.	8e\J	.
=114	=114	=114	=114	=114
8A/L	2AA\]	2cc#/]	8c#\L	.
8E/	.	.	8e\	.
8A/	.	.	8c#\	.
8E/	.	.	8e\	.
8G#/	4GG#\	(4b#/	8B#\	.
8E/J	.	.	8e\J	.
=115	=115	=115	=115	=115
8A/L	2AA\	2cc#/	8c#\L	.
8E/	.	.	8e\	.
8A/	.	.	8c#\	.
8E/	.	.	8e\	.
8B/	4BB\	4dd/	8d\	.
8E/J	.	.	8e\J	.
=116	=116	=116	=116	=116
8A/L	2AA\	2cc#/	8c#\L	.
8E/	.	.	8e\	.
8A/	.	.	8c#\	.
8E/	.	.	8e\	.
8G#/	4GG#\	4bn/)	8Bn\	.
8C#/J	.	.	8e#\J	.
=117	=117	=117	=117	=117
8F#/L	[2.FF#\	2.a/	8A\L	<
8C#/	.	.	8c#\	.
8F#/	.	.	8A\	.
8C#/	.	.	8c#\	.
8F#/	.	.	8A\	.
8C#/J	.	.	8c#\J	.
=118	=118	=118	=118	=118
8F#/L	2FF#\]	2a/	8A\L	.
8C#/	.	.	8c#\	.
8F#/	.	.	8A\	.
8C#/	.	.	8c#\	.
8E#/	4EE#\	(4g#/	8G#\	.
8C#/J	.	.	8c#\J	.
=119	=119	=119	=119	=119
8F#/L	2FF#\	2a/	8A\L	.
8C#/	.	.	8c#\	.
8F#/	.	.	8A\	.
8C#/	.	.	8c#\	.
8E#/	4EE#\	4g#/	8G#\	.
8C#/J	.	.	8c#\J	.
=120	=120	=120	=120	=120
8F#/L	2FF#\	2a/	8A\L	.
8C#/	.	.	8c#\	.
8F#/	.	.	8A\	.
8C#/	.	.	8c#\	.
8En/	4EEn\	4a#/)	8A#\	.
8C#/J	.	.	8f#\J	.
=121	=121	=121	=121	=121
8D/L	2DD\	(2b/	8B\L	.
8FF#/	.	.	8f#\	.
8D/	.	.	8B\	.
8FF#/	.	.	8f#\	.
8AA#/	4AAA#\	4cc#/	8c#\	.
8FF#/J	.	.	8f#\J	.
=122	=122	=122	=122	=122
8BB/L	2BBB\	2dd/	8d\L	.
8FF#/	.	.	8f#\	.
8BB/	.	.	8d\	.
8FF#/	.	.	8f#\	.
8AAn/	4AAAn\	4dd#/	8d#\	.
8FF#/J	.	.	8b\J	.
=123	=123	=123	=123	=123
8GG#/L	2GGG#\	2ee/	8e\L	.
8EE/	.	.	8b\	.
8GG#/	.	.	8e\	.
8EE/	.	.	8b\	.
8D#/	4DD#\	4ff#/	8f#\	.
8BB/J	.	.	8b\J	.
=124	=124	=124	=124	=124
8E/L	2EE\	2ggn/	8gn\L	.
8BB/	.	.	8b\	.
8E/	.	.	8g\	.
8BB/	.	.	8b\	.
8Dn/	4DDn\	4gg#/	8g#\	.
8BB/J	.	.	8ee\J	.
=125	=125	=125	=125	=125
2.AA/ 2.C#/	2.CC#\	2.aa/)	2.a\ 2.ee\	.
*v	*v	*	*	*
*	*v	*v	*
=126	=126	=126
2.r	(12aa\L	.
.	12gg#\	.
.	12bb\J)	.
.	(12aa\L	.
.	12gg#\	.
.	12ff#\J)	.
.	(20ee\LL	.
.	20dd\	.
.	20cc#\	.
.	20b\	.
.	20a\JJ)	.
=127	=127	=127
2.F#\ 2.A\ 2.B\ 2.d#\	2.aa\	.
=128	=128	=128
2.r	(12aa\L	.
.	12gg#\	.
.	12bb\J)	.
.	(12aa\L	.
.	12gg#\	.
.	12ff#\J	.
.	20ee\LL)	.
.	20dd#\	.
.	20cc#\	.
.	20b\	.
.	20a\JJ	.
=129	=129	=129
4E\ 4A\ 4c#\ 4e\	(12aa\L	f
.	12gg#\	.
.	12bb\J)	.
4r	(12aa\L	.
.	12gg#\	.
.	12ff#\J)	.
4r	(20ee\LL	.
.	20ddn\	.
.	20cc#\	.
.	20b\	.
.	20a\JJ)	.
=130	=130	=130
2.r	(12aa\L	f
.	12gg#\	.
.	12bb\J)	.
.	(12aa\L	.
.	12gg#\	.
.	12ff#\J)	.
.	(20ee\LL	.
.	20dd\	.
.	20cc#\	.
.	20b\	.
.	20a\JJ)	.
=131	=131	=131
12EE/L	[2.cc#\ [2.ee\	f
12FF#/	.	.
12GG#/J	.	.
12AA/L	.	.
12BB/	.	.
12C#/J	.	.
12D\L	.	.
12E\	.	.
12F#\J	.	.
=132	=132	=132
12G#\L	2.cc#\_ 2.ee\_	>
12A\	.	.
12B\J	.	.
(8B#\L	.	.
8c#\	.	.
8d\	.	.
8d#\J)	.	.
=133	=133	=133
[2.e\	4cc#\] (4ee\]	p
.	4b\ 4dd\	.
.	4a\ 4cc#\)	.
=134	=134	=134
*^	*	*
2e/]	2.E\	(2a/ 2cc#/	.
4dn/	.	4g#/ 4b/	.
=135	=135	=135	=135
4c#/	4A\	4a/)	.
2r	4r	4r	.
.	4r	[4ee\	.
*v	*v	*	*
=136	=136	=136
4AA''/ 4C#''/ 4E''/	2ee\]	.
4AA''/ 4C#''/ 4E''/	.	.
4r	[4e/	.
=137	=137	=137
4C#''\ 4E''\ 4A''\	2e/]	.
4C#''\ 4E''\ 4A''\	.	.
4r	[4a/	.
=138	=138	=138
4E''\ 4B''\	(4a/]	.
4E''\ 4B''\	4g#/)	.
4r	[4dd\	.
=139	=139	=139
4A''\ 4c#''\	(4dd\]	.
4A''\ 4c#''\	4cc#\)	.
4r	[4aa\	.
*clefG2	*	*
=140	=140	=140
4c#''/ 4gn''/	2aa\]	.
4c#''/ 4g''/	.	.
4r	[4a/	.
=141	=141	=141
4d''/ 4f#''/	2a/]	.
4d''/ 4f#''/	.	.
4r	[4ff#\	.
=142	=142	=142
4e''/ 4g#''/	4ff#\]	.
4e''/ 4g#''/	4ee''\	.
4r	4dd''\	.
=143	=143	=143
4A/ 4a/	(4cc#\	.
4r	4a\)	.
4r	[4e\ [4ee\	.
*clefF4	*	*
=144	=144	=144
4AAA''\ 4EE''\	2e\] 2ee\]	.
4AAA''\ 4EE''\	.	.
4r	[4E/ [4e/	.
=145	=145	=145
4CC#''\ 4AA''\	2E/] 2e/]	.
4CC#''\ 4AA''\	.	.
4r	[4A/ [4a/	.
=146	=146	=146
4EE''/ 4BB''/	(4A/] 4a/]	.
4EE''/ 4BB''/	4G#/) 4g#/	.
4r	[4d/ [4dd/	.
=147	=147	=147
4AA''/ 4C#''/	4d/] 4dd/]	.
4AA''/ 4C#''/	4c#/ 4cc#/	.
4r	[4a\ [4aa\	.
=148	=148	=148
4C#''\ 4Gn''\	2a\] 2aa\]	.
4C#''\ 4G''\	.	.
4r	[4A/ [4a/	.
=149	=149	=149
4D''\ 4F#''\	2A/] 2a/]	.
4D''\ 4F#''\	.	.
4r	[4f#\ [4ff#\	.
=150	=150	=150
4E''\ 4G#''\	4f#\] 4ff#\]	.
4E''\ 4G#''\	4e''/ 4ee''/	.
4r	4d''/ 4dd''/	.
=151	=151	=151
4AA''\ 4A''\	(4c#/ 4cc#/	.
4AA''\ 4A''\	4a/)	.
4r	[4a\ [4aa\	.
=152	=152	=152
4C#''\ 4Gn''\	2a\] 2aa\]	.
4C#''\ 4G''\	.	.
4r	[4A/ [4a/	<
=153	=153	=153
4D''\ 4F#''\	2A/] 2a/]	.
4D''\ 4F#''\	.	.
4r	[4f#\ [4ff#\	.
=154	=154	=154
4E''\ 4G#''\	4f#\] 4ff#\]	.
4E''\ 4G#''\	4e''/ 4ee''/	.
4r	4d''/ 4dd''/	.
=155	=155	=155
4AA''\ 4A''\	(4c#/ 4cc#/	.
4AA''\ 4A''\	4a/)	.
4r	[4f#\ [4ff#\	.
=156	=156	=156
4E''\ 4G#''\	4f#\] 4ff#\]	.
4E''\ 4G#''\	4e''/ 4ee''/	.
4r	4d''/ 4dd''/	.
=157	=157	=157
4AA''\ 4A''\	(4c#/ 4cc#/	.
4AA''\ 4A''\	4a/)	.
4r	[4f#/	f
=158	=158	=158
4EE/ 4GG#/	4f#/]	.
4EE''/ 4GG#''/	4e''/	.
4r	[4d/	.
=159	=159	=159
4AAA''/ 4AA''/	4d''/]	>
4r	4c#''/	.
4r	4B''/	.
=160	=160	=160
*^	*	*
4A'/	2.r	2.r	.
4Gn'/	.	.	.
4F#'/	.	.	.
=161	=161	=161	=161
4E'/	2.r	2.r	.
4D'/	.	.	.
4C#'/	.	.	.
*v	*v	*	*
=162	=162	=162
4BB'/	2.r	.
4AA'/	.	.
4GG'/	.	.
=163	=163	=163
*>A1	*>A1	*>A1
*^	*	*
4FF#/	4DD\	2.r	pp
4r	4DD\	.	.
4r	4DD\	.	.
*v	*v	*	*
=164:|!	=164:|!	=164:|!
*>A2	*>A2	*>A2
*^	*	*
4FF#/	4FFF#\	4r	pp
2r	4FFF#\ 4FF#\	4r	<
.	4FFF#\ 4FF#\	4r	.
*v	*v	*	*
=165	=165	=165
*>B	*>B	*>B
4FFF#\ 4FF#\	2.r	.
4FFF#\ 4FF#\	.	.
4FFF#\ 4FF#\	.	.
=166	=166	=166
*^	*	*
[2.D/ [2.A/ [2.cn/ [2.d/	4FFF#\ 4FF#\	2.r	>
.	4FFF#\ 4FF#\	.	.
.	4FFF#\ 4FF#\	.	.
=167	=167	=167	=167
2.D/] 2.A/] 2.c/] 2.d/]	4FFF#\ 4FF#\	2.r	.
.	4FFF#\ 4FF#\	.	.
.	4FFF#\ 4FF#\	.	.
=168	=168	=168	=168
4D/ 4G/ 4B/ 4d/	4GGG\ 4GG\	4r	p
2r	4GG\	4r	.
.	4GG\	4r	.
=169	=169	=169	=169
*	*	*^	*
(2.BB/	4GG\	2.dd/	2.fn\	.
.	4GG\	.	.	.
.	4GG\	.	.	.
=170	=170	=170	=170	=170
2.Cn/	4GG\	4dd/	2.e\	.
.	4GG\	[2ccn/	.	.
.	4GG\	.	.	.
=171	=171	=171	=171	=171
2.E/	4GG\	2cc/]	2.cn\	.
.	4GG\	.	.	.
.	4GG\	8b/L	.	.
.	.	8a/J	.	.
=172	=172	=172	=172	=172
2.A/	4GG\	2g/	2.cn\	.
.	4GG\	.	.	.
.	4GG\	4f#/	.	.
=173	=173	=173	=173	=173
2.F#/	4GG\	2e/	2.cn\	.
.	4GG\	.	.	.
.	4GG\	4d/	.	.
*	*	*v	*v	*
=174	=174	=174	=174
2.G/	4GG\	2.B/ 2.d/	.
.	4GG\	.	.
.	4GG\	.	.
=175	=175	=175	=175
2.BB/	4GG\	2.d/ 2.g/	.
.	4GG\	.	.
.	4GG\	.	.
=176	=176	=176	=176
2.D/	4GG\	2f#/ 2a/	.
.	4GG\	.	.
.	4GG\	8g/ 8b/L	.
.	.	8a/ 8ccn/J	.
=177	=177	=177	=177
4G/)	4GG\	4g/ 4b/	.
4G/	4r	4r	.
4G/	4r	4r	.
=178	=178	=178	=178
(2.g/	4G\	8r	.
.	.	(8ffn\L	<
.	4G\	8ee\	.
.	.	8ff\	.
.	4G\	8ee\	.
.	.	8ff\J)	.
=179	=179	=179	=179
*	*	*^	*
2.B/	4G\	8r	2.ffn\	.
.	.	8ddd/L	.	.
.	4G\	8ccc#/	.	.
.	.	8ddd/	.	.
.	4G\	8ccc#/	.	.
.	.	8ddd/J	.	.
=180	=180	=180	=180	=180
2.cn/	4G\	4ddd/	2.ee-\	.
.	4G\	[2cccn/	.	.
.	4G\	.	.	.
=181	=181	=181	=181	=181
2.e-/	4G\	2ccc/]	2.ccn\	.
.	4G\	.	.	.
.	4G\	8bb-/L	.	.
.	.	8aa/J	.	.
=182	=182	=182	=182	=182
2.a/	4G\	2gg/	2.ccn\	p
.	4G\	.	.	.
.	4G\	4ff#/	.	.
=183	=183	=183	=183	=183
2.f#/	4G\	2ee-/	2.ccn\	.
.	4G\	.	.	.
.	4G\	4dd/	.	.
*	*	*v	*v	*
=184	=184	=184	=184
8g/)	8G\L	2.b-/ 2.dd/	<
8r	8c#\	.	.
2r	8d\	.	.
.	8c#\	.	.
.	8e-\	.	.
.	8d\J	.	.
*v	*v	*	*
=185	=185	=185
8cn\L	2.gg\	.
8B-\	.	.
8A\	.	.
8G\	.	.
8F#\	.	.
8E-\J	.	.
=186	=186	=186
8D/L	2ff#\ 2aa\	.
8Cn/	.	.
8BB-/	.	.
8AA/	.	.
8GG/	8gg\ 8bb-\L	.
8FF#/J	8aa\ 8cccn\J	.
=187	=187	=187
8GG/L	4gg''\ 4bb-''\	.
8FF#/	.	.
8GG/	4r	.
8FFn/	.	.
8EE-/	4r	.
8DD/J	.	.
=188	=188	=188
8CC#\L	2.a\ 2.aa\	f
8G#\	.	.
8A\	.	.
8G#\	.	.
8B-\	.	.
8A\J	.	.
=189	=189	=189
8Gn\L	2.dd\	.
8Fn\	.	.
8E\	.	.
8D\	.	.
8C#\	.	.
8BB-\J	.	.
=190	=190	=190
8AA/L	2cc#\ (2ee\	.
8GG/	.	.
8FFn/	.	.
8EE/	.	.
8DD/	8dd\ 8ffn\L	.
8CC#/J	8ee\ 8gg\J)	.
=191	=191	=191
8DD/L	4dd''\ 4ffn''\	.
8C#/	.	.
8D/	4r	.
8C#/	.	.
8D/	4r	.
8C#/J	.	.
=192	=192	=192
2.D\	8r	.
.	8ccc#\L	f
.	8ddd\	.
.	8ccc#\	.
.	8eee-\	.
.	8ddd\J	.
=193	=193	=193
2.G\	8cccn\L	.
.	8bb-\	.
.	8aa\	.
.	8gg\	.
.	8ff#\	.
.	8ee-\J	.
=194	=194	=194
2F#\ (2A\	8dd/L	.
.	8ccn/	.
.	8b-/	.
.	8a/	.
8G\ 8B-\L	8g/	.
8A\ 8cn\J)	8f#/J	.
=195	=195	=195
4G''\ 4B-''\	8g/L	.
.	8f#/	.
4r	8g/	.
.	8fn/	.
4r	8e-/	.
.	8d/J	.
=196	=196	=196
2.AAA/ 2.AA/	8c#\L	.
.	8gg#\	.
.	8aa\	.
.	8gg#\	.
.	8bb-\	.
.	8aa\J	.
=197	=197	=197
2.DD/ 2.D/	8ggn\L	.
.	8ffn\	.
.	8ee\	.
.	8dd\	.
.	8cc#\	.
.	8b-\J	.
=198	=198	=198
2C#\ (2E\	8a/L	.
.	8g/	.
.	8fn/	.
.	8e/	.
8D\ 8Fn\L	8d/	.
8E\ 8G\J)	8c#/J	.
=199	=199	=199
4D''\ 4Fn''\	8d/L	.
.	8fn/	.
4r	8a/	.
.	8dd/	.
4r	8ffn/	.
.	8dd/J	.
=200	=200	=200
8A\L	2cc#\ (2ee\	p
8G\	.	.
8Fn\	.	.
8E\	.	.
8D\	8dd\ 8ffn\L	.
8C#\J	8ee\ 8gg\J)	.
=201	=201	=201
8D\L	4dd''\ 4ffn''\	.
8Fn\	.	.
8A\	4r	.
8d\	.	.
8fn\	4r	.
8d\J	.	.
*clefG2	*	*
=202	=202	=202
(2c#/ 2e/	8aa\L	.
.	8gg\	.
.	8ffn\	.
.	8ee\	.
8d/ 8fn/L	8dd\	.
8e/) 8g/J	8cc#\J	.
=203	=203	=203
4d''/ 4fn''/	8dd\L	.
.	8cc#\	.
4r	8dd\	.
.	8ccn\	.
*clefF4	*	*
8r	8bn\	.
8d#\	8a\J	.
=204	=204	=204
8e\L	2g#\ (2b\	.
8dn\	.	.
8cn\	.	.
8B\	.	.
8A\	8a\ 8ccn\L	.
8G#\J	8b\ 8dd\J)	.
=205	=205	=205
8A\L	4a''\ 4ccn''\	.
8cn\	.	.
*clefG2	*	*
8e\	4r	.
8a\	.	.
8ccn\	4r	.
8a\J	.	.
=206	=206	=206
2g#\ (2b\	8eee\L	.
.	8ddd\	.
.	8cccn\	.
.	8bb\	.
8a\ 8ccn\L	8aa\	.
8b\ 8dd\J)	8gg#\J	.
=207	=207	=207
4a''\ 4ccn''\	8aa\L	.
.	8ee\	.
4r	8dd\	.
.	8ccn\	.
4r	8b\	.
.	8a\J	.
*clefF4	*	*
=208	=208	=208
8e\L	2g#\ (2b\	<
8d\	.	.
8cn\	.	.
8B\	.	.
8A\	8a\ 8ccn\L	.
8G#\J	8b\ 8dd\J)	.
=209	=209	=209
*	*^	*
8A\L	(2ccn/	2.a\	.
8G#\	.	.	.
8A\	.	.	.
8B\	.	.	.
8cn\	8dd/L	.	.
8A\J	8ee/J)	.	.
=210	=210	=210	=210
8F#\L	(2dd#/	2.a\	.
8cn\	.	.	.
8B\	.	.	.
8A\	.	.	.
8G\	8ee/L	.	.
8F#\J	8ff#/J)	.	.
=211	=211	=211	=211
8G\L	(2ee/	2.b\	.
8B\	.	.	.
8A\	.	.	.
8G\	.	.	.
8F#\	8ff#/L	.	.
8E\J	8gg/J)	.	.
=212	=212	=212	=212
8D#\L	(2ff#/	2.b\	.
8F#\	.	.	.
8E\	.	.	.
8D#\	.	.	.
8C#\	8gg/L	.	.
8BB\J	8aa/J)	.	.
=213	=213	=213	=213
8E\L	(2gg/	2.b\	.
8D#\	.	.	.
8E\	.	.	.
8F#\	.	.	.
8G\	8aa/L	.	.
8E\J	8bb/J)	.	.
=214	=214	=214	=214
8C#\L	(2aa#/	2.ee\	.
8G\	.	.	.
8F#\	.	.	.
8E\	.	.	.
8Dn\	8bb/L	.	.
8C#\J	8ccc#/J)	.	.
=215	=215	=215	=215
8D\L	(2bb/	2.ff#\	.
8F#\	.	.	.
8E\	.	.	.
8D\	.	.	.
8C#\	8ccc#/L	.	.
8BB\J	8ddd/J)	.	.
=216	=216	=216	=216
8AA#/L	(2ccc#/	2.ff#\	.
8C#/	.	.	.
8BB/	.	.	.
8AA#/	.	.	.
8GG#/	8ddd/L	.	.
8FF#/J	8eee/J)	.	.
=217	=217	=217	=217
8BB/L	(2ddd/	2.ff#\	ff
8D/	.	.	.
8BB/	.	.	.
8D/	.	.	.
8BB/	8ccc#/L	.	.
8D/J	8bb/J)	.	.
=218	=218	=218	=218
8GGn/L	(2ddd/	2.ee#\	.
8BB/	.	.	.
8GG/	.	.	.
8BB/	.	.	.
8GG/	8ccc#/L	.	.
8BB/J	8bb/J)	.	.
=219	=219	=219	=219
8GG/L	(2ddd/	2.ee#\	.
8BB/	.	.	.
8GG/	.	.	.
8BB/	.	.	.
8GG/	8ccc#/L	.	.
8BB/J	8bb/J)	.	.
=220	=220	=220	=220
*^	*	*	*
2C#/	2.FF#\	4aa#/	4ff#\	.
.	.	2ff#/	(4a#\	.
8BB/L	.	.	8b\L	.
8AA#/J	.	.	8cc#\J)	.
=221	=221	=221	=221	=221
(2D/	2.FF#\	4r	4r	.
.	.	2ff#/	(4b\	.
8C#/L	.	.	8cc#\L	.
8BB/J)	.	.	8dd\J)	.
=222	=222	=222	=222	=222
2E/	2.FF#\	4r	4r	.
.	.	2ff#/	(4cc#\	.
8D/L	.	.	8dd\L	.
8C#/J	.	.	8ee\J)	.
=223	=223	=223	=223	=223
(2D/	2.FF#\	4r	4r	.
.	.	2ff#/	(4b\	.
8C#/L	.	.	8cc#\L	.
8BB/J)	.	.	8dd\J)	.
=224	=224	=224	=224	=224
2C#/	2.FF#\	4r	4r	.
.	.	4aa#/	2ff#\	.
8BB/L	.	8bb/L	.	.
8AA#/J	.	8ccc#/J	.	.
=225	=225	=225	=225	=225
2D/	2.FF#\	4r	4r	.
.	.	4bb/	2ff#\	.
8C#/L	.	8ccc#/L	.	.
8BB/J	.	8ddd/J	.	.
=226	=226	=226	=226	=226
2E/	2.FF#\	4r	4r	.
.	.	4ccc#/	2ff#\	.
8D/L	.	8ddd/L	.	.
8C#/J	.	8eee/J	.	.
=227	=227	=227	=227	=227
(2D/	2.FF#\	4r	4r	.
.	.	4bb/	2ff#\	.
8C#/L	.	8ccc#/L	.	.
8BB/J)	.	8ddd/J	.	.
=228	=228	=228	=228	=228
(2C#/	2.FF#\	4r	4r	.
.	.	(4aa#/	2ff#\	.
8BB/L	.	8bb/L	.	.
8AA#/J)	.	8ccc#/J)	.	.
*	*	*v	*v	*
=229	=229	=229	=229
(2AA#/	2.CC#\	4r	.
.	.	(4f#/	.
8GG#/L	.	8g#/L	.
8FF#/J)	.	8a#/J)	.
=230	=230	=230	=230
2.FF#/	(2CC#\	4r	.
.	.	(4a#\	.
.	8BBB\L	8b\L	.
.	8AAA#\J)	8cc#\J)	.
=231	=231	=231	=231
2.FF#/	(2AAA#\	4r	.
.	.	(4ff#\	>
.	8GGG#\L	8gg#\L	.
.	8FFF#\J)	8aa#\J)	.
=232	=232	=232	=232
2.FF#/	(2FFF#\	4r	.
.	.	(4aa#\	.
.	8GGG#\L	8bb\L	.
.	8AAA#\J)	8ccc#\J)	.
=233	=233	=233	=233
2.FF#/	(2AAA#\	4r	.
.	.	(4ccc#\	.
.	8BBB\L	8bb\L	.
.	8CC#\J)	8aa#\J)	.
=234	=234	=234	=234
2.FF#/	(2CC#\	4r	.
.	.	4aa#\	.
.	8BBB\L	8gg#\L	.
.	8AAA#\J)	8ff#\J	.
=235	=235	=235	=235
2.FF#/	(2AAA#\	4r	.
.	.	4ff#\	.
.	8GGG#\L	8gg#\L	.
.	8FFF#\J)	8aa#\J	.
=236	=236	=236	=236
2.FF#/	(2FFF#\	4r	.
.	.	(4aa#\	.
.	8GGG#\L	8bb\L	.
.	8AAA#\J)	8ccc#\J)	.
=237	=237	=237	=237
2.FF#/	(2AAA#\	4r	.
.	.	(4ccc#\	.
.	8BBB\L	8bb\L	.
.	8CC#\J)	8aa#\J)	.
=238	=238	=238	=238
2.FF#/	(2CC#\	4r	.
.	.	(4aa#\	.
.	8BBB\L	8gg#\L	.
.	8AAA#\J)	8ff#\J)	.
=239	=239	=239	=239
2.FF#/	(2AAA#\	4r	.
.	.	(4ff#\	.
.	8GGG#\L	8gg#\L	.
.	8FFF#\J)	8aa#\J)	.
*v	*v	*	*
=240	=240	=240
2FFF#/	4r	.
.	(4aa#\	.
4FF#/	8bb\L	.
.	[8ccc#\J)	.
=241	=241	=241
2FFF#/	4ccc#\]	.
.	[2cc#\ [2ff#\ [2aa#\ [2ccc#\	.
4FF#/	.	.
=242	=242	=242
2FFF#/	4cc#\] 4ff#\] 4aa#\] 4ccc#\]	.
.	[2a#\ [2cc#\ [2ff#\ [2aa#\	.
4FF#/	.	.
=243	=243	=243
2FFF#/	4a#\] 4cc#\] 4ff#\] 4aa#\]	.
.	[2f#\ [2a#\ [2cc#\ [2ff#\	.
4FF#/	.	.
=244	=244	=244
2FFF#/	4f#\] 4a#\] 4cc#\] 4ff#\]	.
.	[2c#/ [2f#/ [2a#/ [2cc#/	.
4FF#/	.	.
=245	=245	=245
2FFF#/	4c#/] 4f#/] 4a#/] 4cc#/]	.
.	[2A#/ [2c#/ [2f#/ [2a#/	.
4FF#/	.	.
=246	=246	=246
2FFF#/	4A#/] 4c#/] 4f#/] 4a#/]	.
.	[2F#/ [2A#/ [2c#/ [2f#/	.
4FF#/	.	.
=247	=247	=247
2FFF#/	4F#/] 4A#/] 4c#/] 4f#/]	<
*	*clefF4	*clefF4
.	[2C#\ [2F#\ [2A#\ [2c#\	.
4FF#/	.	.
=248	=248	=248
2FFF#/	4C#\] 4F#\] 4A#\] 4c#\]	.
.	[2AA#/ [2C#/ [2F#/ [2A#/	.
4FF#/	.	.
=249	=249	=249
2EE#/	4AA#/] 4C#/] 4F#/] 4A#/]	.
.	[2AA#/ [2C#/ [2F#/	.
4FF#/	.	.
=250	=250	=250
2CC#/	4AA#/] 4C#/] 4F#/]	.
.	[2AA#/ [2C#/ [2F#/	.
4FF#/	.	.
=251	=251	=251
2AAA#/	4AA#/] 4C#/] 4F#/]	.
.	[2AA#/ [2C#/ [2F#/	.
[4FF#/	.	.
=252	=252	=252
[2.FFF#/ 2.FF#/]	2.AA#/_ 2.C#/_ 2.F#/_	p
=253	=253	=253
2FFF#/]	2AA#/] 2C#/] 2F#/]	>
[4FF#/	[4AA#/ [4C#/ [4F#/	.
=254	=254	=254
[2.FFF#/ 2.FF#/_	2.AA#/_ 2.C#/_ 2.F#/_	.
=255	=255	=255
2FFF#/] 2FF#/]	2AA#/] 2C#/] 2F#/]	.
[4FF#/	[4AA#/ [4C#/ [4F#/	pp
=256	=256	=256
[2.FFF#/ 2.FF#/_	2.AA#/_ 2.C#/_ 2.F#/_	.
=257	=257	=257
2FFF#;/] 2FF#;/]	2AA#;/] 2C#;/] 2F#;/]	.
*	*clefG2	*clefG2
4r	[4ff#\	p
=258	=258	=258
4BB''\ 4D#''\ 4F#''\	2ff#\]	p
4BB''\ 4D#''\ 4F#''\	.	.
4r	[4f#/	.
=259	=259	=259
4D#''\ 4F#''\ 4B''\	2f#/]	.
4D#\ 4F#\ 4B\	.	.
4r	[4b\	.
=260	=260	=260
4F#''\ 4c#''\	(4b\]	.
4F#''\ 4c#''\	8a#\L	.
.	8cc#\J	.
4r	[4ee\)	.
=261	=261	=261
4B\ 4d#\	(4ee\]	.
4r	4dd#\)	.
4r	4r	.
=262	=262	=262
2.r;	4r	.
.	4r;	.
.	[4ff#\	p
=263	=263	=263
4BB''\ 4Dn''\ 4F#''\	2ff#\]	.
4BB''\ 4D''\ 4F#''\	.	.
4r	[4f#/	.
=264	=264	=264
4D''\ 4F#''\ 4B''\	2f#/]	.
4D''\ 4F#''\ 4B''\	.	.
4r	[4b\	.
=265	=265	=265
4F#''\ 4c#''\	4b\]	.
4F#''\ 4c#''\	(8a#\L	.
.	8cc#\J	.
4r	[4ee\)	.
=266	=266	=266
4B\ 4d\	(4ee\]	.
4r	4dd\)	.
4r	4r	.
=267	=267	=267
2.r	4r	.
.	4r	.
.	[4dd\	pp
*clefG2	*	*
=268	=268	=268
[2.An/ [2.e/ [2.g/	(4dd\]	.
.	8cc#\L	.
.	8ee\J	.
.	[4gg\)	.
=269	=269	=269
2.A;/] 2.e;/] 2.g;/]	2.gg;\]	.
*clefF4	*	*
=270	=270	=270
4DD\	2.r	.
4DD\	.	.
4DD\	.	.
=271	=271	=271
*	*^	*
4DD\	2.a/	2.cn\ 2.f#\	pp
4DD\	.	.	.
4DD\	.	.	.
*	*v	*v	*
=272	=272	=272
*	*^	*
4DD\	(4a/	[2.B\ [2.d\	.
4DD\	[2g/	.	.
4DD\	.	.	.
=273	=273	=273	=273
*^	*	*	*
2r	4DD\	2g/]	2B\] 2d\]	.
.	4DD\	.	.	.
4G/ 4B/	4DD\	8f#/L	4r	.
.	.	8e/J)	.	.
*	*	*v	*v	*
=274	=274	=274	=274
2.E/ 2.G/	4DD\	(2d/	.
.	4DD\	.	.
.	4DD\	4c#/)	.
=275	=275	=275	=275
2.C#/ 2.G/	4DD\	(2B/	.
.	4DD\	.	.
.	4DD\	4A/)	.
=276	=276	=276	=276
2.D/ 2.F#/	4DD\	(2.A/	.
.	4DD\	.	.
.	4DD\	.	.
=277	=277	=277	=277
2.FF#/	4DD\	2.A/ 2.d/	.
.	4DD\	.	.
.	4DD\	.	.
=278	=278	=278	=278
2.AA/	4DD\	2c#/ 2e/	.
.	4DD\	.	.
.	4DD\	8d/ 8f#/L	.
.	.	8e/ 8g/J	.
=279	=279	=279	=279
4D/	4DD\	4d'/) 4f#'/	.
4r	4D\	4r	.
4r	4D\	4r	.
=280	=280	=280	=280
(2.d/	4D\	8r	.
.	.	(8ccn\L	<
.	4D\	8b\	.
.	.	8cc\	.
.	4D\	8b\	.
.	.	8cc\J)	.
=281	=281	=281	=281
*	*	*^	*
2.F#/	4D\	8r	2.ccn\	.
.	.	8aa/L	.	.
.	4D\	8gg#/	.	.
.	.	8aa/	.	.
.	4D\	8gg#/	.	.
.	.	8aa/J	.	.
=282	=282	=282	=282	=282
2.G/	4D\	4aa/	2.b\	.
.	4D\	[2gg/	.	.
.	4D\	.	.	.
=283	=283	=283	=283	=283
2.B/	4D\	2gg/]	2.g\	.
.	4D\	.	.	.
.	4D\	8ff#/L	.	.
.	.	8ee/J	.	.
=284	=284	=284	=284	=284
2.e/	4D\	2dd/	2.g\	.
.	4D\	.	.	.
.	4D\	4cc#/	.	.
=285	=285	=285	=285	=285
2.c#/	4D\	2b/	2.g\	.
.	4D\	.	.	.
.	4D\	4a/	.	.
=286	=286	=286	=286	=286
2.d/	4D\	2.a/	2.f#\	.
.	4D\	.	.	.
.	4D\	.	.	.
*	*	*v	*v	*
=287	=287	=287	=287
2.F#/	4D\	2.a\ 2.dd\	.
.	4D\	.	.
.	4D\	.	.
=288	=288	=288	=288
2.A/	4D\	2cc#\ 2ee\	.
.	4D\	.	.
.	4D\	8dd\ 8ff#\L	.
.	.	8ee\ 8gg\J	.
=289	=289	=289	=289
4d'/)	4D\	4dd'\ 4ff#'\	.
4r	4D\	4r	.
4r	4D\	4r	.
=290	=290	=290	=290
4D/	[2.FF#\	[2.A/ [2.d/	<
4D/	.	.	.
4D/	.	.	.
=291	=291	=291	=291
4D/	(4FF#\]	4A/] 4d/]	.
4D/	4GG\	4B/ 4e/	.
4D/	4AA\)	4cn/ 4f#/	.
=292	=292	=292	=292
*	*	*^	*
4D/	[2.BB\	(4a/	[2.d\	.
4D/	.	[2g/)	.	.
4D/	.	.	.	.
=293	=293	=293	=293	=293
4D/	2BB\]	(2g/]	2d\]	.
4D/	.	.	.	.
4D/	(4AA\	[4f#/)	4cn\	p
=294	=294	=294	=294	=294
4D/	2GG\	4f#/]	4B\	.
4D/	.	4e/	2r	.
4E/	4GG#\	[4d/	.	.
*	*	*v	*v	*
=295	=295	=295	=295
4E/	2AA\	4d/]	.
4E/	.	4c#/	.
4Gn/	4AA\)	[4A/	.
=296	=296	=296	=296
4F#/	4D\	(8A/L]	<
.	.	8d/	.
4D/	2r	8f#/	.
.	.	8a/	.
4D/	.	8dd/	.
.	.	8ff#/J	.
*v	*v	*	*
=297	=297	=297
4D/	8aa\L	.
.	8ff#\J	.
4D/	12dd/L	.
.	12a/	.
.	12f#/J	.
4D/	12a/L	.
.	12g/	.
.	12e/J)	.
=298	=298	=298
*^	*^	*
4D/	[2.FF#\	4r	[2.d\	.
4D/	.	[2dd/	.	.
4D/	.	.	.	.
*	*	*v	*v	*
=299	=299	=299	=299
4D/	4FF#\]	4d/] (4dd/]	.
4D/	4GG\	4e/ 4ee/	.
4D/	4AA\	4f#/ 4ff#/	.
=300	=300	=300	=300
4D/	[2.BB\	4a\ 4aa\	.
4D/	.	[2g\ [2gg\	.
4D/	.	.	.
=301	=301	=301	=301
4D/	(2BB\]	2g\] 2gg\]	.
4D/	.	.	.
4D/	4AA\	[4f#/ [4ff#/)	p
=302	=302	=302	=302
4D/	2GG\	4f#/] 4ff#/]	.
4D/	.	4e/ 4ee/	.
4E/	4GG#\	[4d/ [4dd/	.
=303	=303	=303	=303
4E/	2AA\)	4d/] 4dd/]	.
4E/	.	4c#/ 4cc#/	.
4Gn/	4AA\	[4A/ [4a/	.
=304	=304	=304	=304
4F#/	4D\	8A/] 8a/L]	<
.	.	(8dd/	.
2r	4D\	(8ff#/)	.
.	.	8dd/	.
.	4D\	8aa/	.
.	.	8ff#/J)	.
=305	=305	=305	=305
4D/	2r	(8ddd\L	.
.	.	8ccc#\	.
4D/	.	8bb\	.
.	.	8aa\	.
4D/	4FF#\	8gg\	.
.	.	[8ff#\J)	.
=306	=306	=306	=306
4D/	2GG\	4ff#\]	p
4D/	.	(4e/ 4ee/	.
4E/	4GG#\	[4d/) [4dd/	.
=307	=307	=307	=307
4E/	2AA\	4d/] 4dd/]	.
4E/	.	4c#/ 4cc#/	.
4Gn/	4AA\	[4A/ [4a/	.
=308	=308	=308	=308
4F#/	4D\	12A/] (12a/L]	.
.	.	12dd/	.
.	.	12cc#/J	<
4D/	2r	12dd\L	.
.	.	12ee\	.
.	.	12ff#\J	.
4D/	.	16gg\LL	.
.	.	16aa\	.
.	.	16bb\	.
.	.	16ccc#\JJ	.
=309	=309	=309	=309
4D/	2r	12ddd\L	.
.	.	12ccc#\	.
.	.	12eee\J	.
4D/	.	12ddd\L	.
.	.	12ccc#\	.
.	.	12bb\J	.
4D/	4FF#\	12aa\L	.
.	.	12gg\	.
.	.	[12ff#\J)	.
=310	=310	=310	=310
4D/	2GG\	(4ff#\]	.
4D/	.	4e/ 4ee/	.
4E/	4GG#\	[4d/ [4dd/)	.
=311	=311	=311	=311
4E/	2AA\	4d/] (4dd/]	.
4E/	.	4c#/ 4cc#/	.
4Gn/	4AA\	4e/ 4ee/	.
=312	=312	=312	=312
4F#/	4D'\	4d'/ 4dd'/)	.
2r	4r	4r	.
.	4r	4r	.
=313	=313	=313	=313
*	*	*^	*
[2.A/	2.D\	(2.b/	2.f#\	.
=314	=314	=314	=314	=314
2.A/]	2.C#\	[2.a/	2.e\	.
=315	=315	=315	=315	=315
[2.E/	2.BB\	4a/]	4d\	.
.	.	8g#/L	2r	.
.	.	8b/J	.	.
.	.	[4dd/	.	.
*	*	*v	*v	*
=316	=316	=316	=316
4E/]	4AA\	4dd/]	.
4r	2r	4cc#/)	.
4r	.	4r	.
*v	*v	*	*
=317	=317	=317
*	*^	*
2.G\ [2.d\	(2.ee/	2.b\	.
=318	=318	=318	=318
2.F#\ 2.d\]	[2.dd/	2.a\	.
=319	=319	=319	=319
2.E\ [2.A\	4dd/]	4g\	.
.	8cc#/L	2r	.
.	8ee/J	.	.
.	[4gg/	.	.
*	*v	*v	*
=320	=320	=320
4D\ 4A\]	4gg/]	.
4r	4ff#/)	.
4r	4r	.
=321	=321	=321
*^	*^	*
[2.A/	(2.D\	8r	[2.f#\	.
.	.	(8b/L	.	.
.	.	8a#/	.	.
.	.	8b/	.	.
.	.	8cc#/	.	.
.	.	8b/J)	.	.
=322	=322	=322	=322	=322
2.A/]	2.C#\	2.an/	8f#\L]	.
.	.	.	8e\	.
.	.	.	8d#\	.
.	.	.	8e\	.
.	.	.	8f#\	.
.	.	.	8e\J	.
=323	=323	=323	=323	=323
[2.E/	2.BB\	8g#/L	4dn\	.
.	.	8a/	.	.
.	.	8b/	4r	.
.	.	8cc#/	.	.
.	.	8dd/	4r	.
.	.	8ee/J	.	.
*	*	*v	*v	*
=324	=324	=324	=324
4E/]	4AA\)	8dd/L	.
.	.	8cc#/	.
4r	2r	8b/	.
.	.	8a/	.
4r	.	8g#/	.
.	.	8a/J	.
=325	=325	=325	=325
*	*	*^	*
[2.d/	2.G\	8r	2.b\	.
.	.	(8ee/L	.	.
.	.	8dd#/	.	.
.	.	8ee/	.	.
.	.	8ff#/	.	.
.	.	8ee/J)	.	.
=326	=326	=326	=326	=326
2.d/]	2.F#\	2.ddn/	(8b\L	.
.	.	.	8a\	.
.	.	.	8g#\	.
.	.	.	8a\	.
.	.	.	8b\	.
.	.	.	8a\J)	.
=327	=327	=327	=327	=327
[2.A/	2.E\	8cc#/L	4gn\	.
.	.	8dd/	.	.
.	.	8ee/	4r	.
.	.	8ff#/	.	.
.	.	8gg/	4r	.
.	.	8aa/J	.	.
*	*	*v	*v	*
=328	=328	=328	=328
4A/]	4D\	8gg\L	.
.	.	8ff#\	.
2r	4r	8ee\	.
.	.	8dd\	.
.	4r	8cc#\	.
.	.	8dd\J	.
*v	*v	*	*
=329	=329	=329
2.BB/ 2.D/ [2.E/	(8gg#\L	.
.	8aa\	.
.	8bb\	.
.	8ccc#\	.
.	8ddd\	.
.	8eee\J	.
=330	=330	=330
4AA/ 4C#/ 4E/]	8ddd\L	.
.	8ccc#\	.
4r	8bb\	.
.	8aa\	.
4r	8gg#\	.
.	8aa\J)	.
=331	=331	=331
2.B\ 2.d\ [2.e\	(8gg#\L	.
.	8aa\	.
.	8bb\	.
.	8ccc#\	.
.	8ddd\	.
.	8eee\J	.
=332	=332	=332
4A\ 4c#\ 4e\]	8ddd\L	.
.	8ccc#\	.
4r	8bb\	.
.	8aa\	.
4r	8gg#\	.
.	8aa\J)	.
=333	=333	=333
2.BB/ 2.D/ [2.E/	(8gg#\L	f
.	8aa\	.
.	8bb\	.
.	8ccc#\	.
.	8ddd\	.
.	8eee\J	.
=334	=334	=334
4AA/ 4C#/ 4E/]	8ddd\L	.
.	8ccc#\	.
4r	8bb\	>
.	8aa\	.
4r	8gg#\	.
.	8ff#\J	.
=335	=335	=335
2.r	8ee\L	.
.	8dd\	.
.	8cc#\	.
.	8b\	.
.	8a\	.
.	8g#\J)	.
=336	=336	=336
2.r	[2.a/	p
=337	=337	=337
2.r	2.a/]	.
=338	=338	=338
4r	2.c#/ 2.e/ (2.a#/	pp
4F#''\	.	.
4F#''\	.	.
=339	=339	=339
4r	2.d/ 2.f#/ 2.b/	.
4BB''/	.	.
4BB''/	.	.
=340	=340	=340
4r	2.e/ 2.a#/ 2.cc#/	.
4FF#''/	.	.
4FF#''/	.	.
=341	=341	=341
4r	2.f#/ 2.b/ 2.dd/	.
4BBB/	.	.
4BBB''/	.	.
=342	=342	=342
*	*^	*
4r	2.dd#/	2.f#\ 2.an\ 2.ccn\	.
4B''\	.	.	.
4B''\	.	.	.
=343	=343	=343	=343
4r	4ee/	2.g\ 2.b\	.
4E''\	4ff#/	.	.
4E''\	4gg/)	.	.
=344	=344	=344	=344
4r	(2ddn/	2f#\ 2a\	.
(4A\	.	.	.
4AA/)	4cc#/)	4e\ 4g\	.
=345	=345	=345	=345
8D''\L	8dd/L	8f#\	.
8f#\	(8ff#/	8r	.
8e\	8ee/	2r	.
8d\	8dd/	.	.
8c#\	8cc#/	.	.
8B\J	8b/J)	.	.
*	*v	*v	*
=346	=346	=346
*^	*	*
2.A#/	4r	(2.a#/	.
.	4F#\	.	.
.	4F#\	.	.
=347	=347	=347	=347
2.B/	4r	2.b\	.
.	4F#\	.	.
.	4F#\	.	.
=348	=348	=348	=348
2.A#/ 2.c#/	4r	2.a#\ 2.cc#\	.
.	4F#\	.	.
.	4F#\	.	.
=349	=349	=349	=349
2.B/ 2.d/	4r	2.b\ 2.dd\	.
.	4F#\	.	.
.	4F#\	.	.
=350	=350	=350	=350
2.B/ 2.e/	4r	2.b\ 2.ee\	.
.	4G\	.	.
.	4G\	.	.
=351	=351	=351	=351
2.B/ 2.e#/	4r	2.b\ 2.ee#\)	.
.	4G\	.	.
.	4G\	.	.
=352	=352	=352	=352
*	*	*^	*
8A#/L	2.F#'\	[2.ff#/	8a#\L	.
(8c#/	.	.	8cc#\	.
8A#/	.	.	8a#\	.
8c#/	.	.	8cc#\	.
8A#/	.	.	8a#\	.
8c#/J	.	.	8cc#\J	.
=353	=353	=353	=353	=353
8A#/L	(2F#\)	2ff#/]	8a#\L	.
8c#/	.	.	8cc#\	.
8A#/	.	.	8a#\	.
8c#/	.	.	8cc#\	.
8B/	4G'\	4ee#/	8b\	.
8c#/J	.	.	8cc#\J	.
=354	=354	=354	=354	=354
8A#/L	2F#\	2ff#/	8a#\L	.
8c#/	.	.	8cc#\	.
8A#/	.	.	8a#\	.
8c#/	.	.	8cc#\	.
8B/	4G\	4ee#/	8b\	.
8c#/J	.	.	8cc#\J	.
=355	=355	=355	=355	=355
8A#/L	2F#\	2ff#/	8a#\L	.
8c#/	.	.	8cc#\	.
8A#/	.	.	8a#\	.
8c#/	.	.	8cc#\	.
8B/	4G\)	4ee#/	8b\	.
8c#/J	.	.	8cc#\J	.
=356	=356	=356	=356	=356
8A#/L	[2.F#\	[2.ff#/	8a#\L	.
8c#/	.	.	8cc#\	.
8A#/	.	.	8a#\	.
8c#/	.	.	8cc#\	.
8A#/	.	.	8a#\	.
8c#/J	.	.	8cc#\J	.
=357	=357	=357	=357	=357
8A#/L	2F#\]	2ff#/]	8a#\L	.
8c#/	.	.	8cc#\	.
8A#/	.	.	8a#\	.
8c#/	.	.	8cc#\	.
8A#/	4D#\	(4ff#/	8a#\	.
8c#/J	.	.	8cc#\J	.
=358	=358	=358	=358	=358
8A#/L	2E\	2gg/	8a#\L	.
8c#/	.	.	8cc#\	.
8A#/	.	.	8a#\	.
8c#/	.	.	8cc#\	.
8A#/	4D#\	4ff#/	8a#\	.
8c#/J	.	.	8cc#\J	.
=359	=359	=359	=359	=359
8A#/L	2E\	2gg/	8a#\L	.
8c#/	.	.	8cc#\	.
8A#/	.	.	8a#\	.
8c#/	.	.	8cc#\	.
8A#/	4D#\	4ff#/	8a#\	.
8c#/J	.	.	8cc#\J	.
=360	=360	=360	=360	=360
8A#/L	[2.E\	[2.gg/)	8a#\L	.
8c#/	.	.	8cc#\	.
8A#/	.	.	8a#\	.
8c#/	.	.	8cc#\	.
8A#/	.	.	8a#\	.
8c#/J	.	.	8cc#\J	.
=361	=361	=361	=361	=361
8A#/L	2.E\]	2.gg/]	8a#\L	.
8c#/	.	.	8cc#\	.
8A#/	.	.	8a#\	.
8c#/	.	.	8cc#\	.
8A#/	.	.	8a#\	.
8c#/J	.	.	8cc#\J	.
=362	=362	=362	=362	=362
8An/L	2E\	(2gg/	8an\L	<
8c#/	.	.	8cc#\	.
8A/	.	.	8a\	.
8c#/	.	.	8cc#\	.
8A/	4D#\	4ff#/	8a\	.
8c#/J	.	.	8cc#\J	.
=363	=363	=363	=363	=363
8A/L	2E\	2gg/	8a\L	.
8c#/	.	.	8cc#\	.
8A/	.	.	8a\	.
8c#/	.	.	8cc#\	.
8A/	4D#\	4ff#/	8a\	.
8c#/J	.	.	8cc#\J	.
=364	=364	=364	=364	=364
8A/L	[2.E\	[2.gg/)	8a\L	.
8c#/	.	.	8cc#\	.
8A/	.	.	8a\	.
8c#/	.	.	8cc#\	.
8A/	.	.	8a\	.
8c#/J	.	.	8cc#\J	.
=365	=365	=365	=365	=365
8A/L	2E\]	2gg/]	8a\L	.
8c#/	.	.	8cc#\	.
8A/	.	.	8a\	.
8c#/	.	.	8cc#\	.
8A/	4E\	(4gg/	8g\	p
8c#/J	.	.	8cc#\J	.
=366	=366	=366	=366	=366
8d/L	2D\	2ff#/	8f#\L	.
8A/	.	.	8a\	.
8d/	.	.	8f#\	.
8A/	.	.	8a\	.
8e/	4E\	4gg/	8g\	.
8A/J	.	.	8a\J	.
=367	=367	=367	=367	=367
8d/L	2D\	2ff#/	8f#\L	.
8A/	.	.	8a\	.
8d/	.	.	8f#\	.
8A/	.	.	8a\	.
8c#/	4C#\	4ee/)	8e\	.
8F#/J	.	.	8a#\J	.
=368	=368	=368	=368	=368
8B/L	[2.BB\	[2.dd/	8d\L	.
8F#/	.	.	8f#\	.
8B/	.	.	8d\	.
8F#/	.	.	8f#\	.
8B/	.	.	8d\	.
8F#/J	.	.	8f#\J	.
=369	=369	=369	=369	=369
8B/L	2BB\]	2dd/]	8d\L	.
8F#/	.	.	8f#\	.
8B/	.	.	8d\	.
8F#/	.	.	8f#\	.
8c#/	4C#\	(4ee/	8e\	.
8F#/J	.	.	8f#\J	.
=370	=370	=370	=370	=370
8B/L	2BB\	2dd/	8d\L	.
8F#/	.	.	8f#\	.
8B/	.	.	8d\	.
8F#/	.	.	8f#\	.
8c#/	4C#\	4ee/	8e\	.
8F#/J	.	.	8f#\J	.
=371	=371	=371	=371	=371
8B/L	2BB\	2dd/	8d\L	.
8F#/	.	.	8f#\	.
8B/	.	.	8d\	.
8F#/	.	.	8f#\	.
8A/	4AA\	4ccn/	8cn\	.
8D/J	.	.	8f#\J	.
=372	=372	=372	=372	=372
8G/L	[2.GG\	[2.b/)	8B\L	<
8D/	.	.	8d\	.
8G/	.	.	8B\	.
8D/	.	.	8d\	.
8G/	.	.	8B\	.
8D/J	.	.	8d\J	.
=373	=373	=373	=373	=373
8G/L	2GG\]	2b/]	8B\L	.
8D/	.	.	8d\	.
8G/	.	.	8B\	.
8D/	.	.	8d\	.
8A/	4AA\	(4ccn/	8cn\	.
8D/J	.	.	8d\J	.
=374	=374	=374	=374	=374
8G/L	2GG\	2b/	8B\L	.
8D/	.	.	8d\	.
8G/	.	.	8B\	.
8D/	.	.	8d\	.
8A/	4AA\	4ccn/	8cn\	.
8D/J	.	.	8d\J	.
=375	=375	=375	=375	=375
8G/L	2GG\	2b/	8B\L	.
8D/	.	.	8d\	.
8G/	.	.	8B\	.
8D/	.	.	8d\	.
8E/	4EE\	4cc#/	8c#\	.
8AA/J	.	.	8g\J	.
=376	=376	=376	=376	=376
8F#/L	2FF#\	2dd/	8d\L	.
8AA/	.	.	8a\	.
8F#/	.	.	8d\	.
8AA/	.	.	8a\	.
8C#/	4CC#\	4ee/	8e\	.
8AA/J	.	.	8a\J	.
=377	=377	=377	=377	=377
8D/L	2DD\	2ff#/	8f#\L	.
8AA/	.	.	8a\	.
8D/	.	.	8f#\	.
8AA/	.	.	8a\	.
8BB/	4BBB\	4gg/	8g\	.
8DD/J	.	.	8dd\J	.
*v	*v	*	*	*
*	*v	*v	*
=378	=378	=378
2.FFF#/ 2.DD/ 2.FF#/	2.a\ 2.dd\ 2.aa\)	.
=379	=379	=379
2.r	(12aa\L	.
.	12gg#\	.
.	12bb\J)	.
.	(12aa\L	.
.	12ggn\	.
.	12ff#\J)	.
.	20ee\LL	.
.	20dd\	.
.	20cc#\	.
.	20b\	.
.	20a\JJ	.
=380	=380	=380
2.BB\ 2.D\ 2.G#\	2.dd\ 2.gg#\ 2.ddd\	.
=381	=381	=381
2.r	(12ddd\L	.
.	12ccc#\	.
.	12eee\J)	.
.	(12ddd\L	.
.	12ccc#\	.
.	12bb\J)	.
.	(20aa\LL	.
.	20gg#\	.
.	20ff#\	.
.	20ee\	.
.	20dd\JJ)	.
=382	=382	=382
4AA\ 4D\ 4F#\ 4A\	(12ddd\L	f
.	12ccc#\	.
.	12eee\J)	.
4r	(12ddd\L	.
.	12ccc#\	.
.	12bb\J)	.
4r	20aa\LL	.
.	(20ggn\	.
.	20ff#\	.
.	20ee\	.
.	20dd\JJ)	.
=383	=383	=383
4AA\ 4C#\ 4E\ 4G\	(12aa\L	f
.	12gg#\	.
.	12bb\J)	.
4r	(12aa\L	.
.	12ggn\	.
.	12ff#\J)	.
4r	(20ee\LL	.
.	20dd\	.
.	20cc#\	.
.	20b\	.
.	20a\JJ)	.
=384	=384	=384
*^	*^	*
8f#/L	[2.F#\	[2.aa/	8a\L	p
8d/	.	.	8dd\	.
8f#/	.	.	8a\	.
8d/	.	.	8dd\	.
8f#/	.	.	8a\	.
8d/J	.	.	8dd\J	.
=385	=385	=385	=385	=385
8f#/L	2F#\]	2aa/]	8a\L	.
8d/	.	.	8dd\	.
8f#/	.	.	8a\	.
8d/	.	.	8dd\	.
8e#/	4E#\	(4gg#/	8g#\	.
8d/J	.	.	8dd\J	.
=386	=386	=386	=386	=386
8f#/L	2F#\	2aa/	8a\L	.
8d/	.	.	8dd\	.
8f#/	.	.	8a\	.
8d/	.	.	8dd\	.
8g/	4G\	4bb/	8b\	.
8d/J	.	.	8dd\J	.
=387	=387	=387	=387	=387
8f#/L	2F#\	2aa/	8a\L	.
8d/	.	.	8dd\	.
8f#/	.	.	8a\	.
8d/	.	.	8dd\	.
8en/	4En\	4ggn/	8gn\	.
8A/J	.	.	8cc#\J	.
=388	=388	=388	=388	=388
8d/L	[2.D\	[2.ff#/)	8f#\L	.
8A/	.	.	8a\	.
8d/	.	.	8f#\	.
8A/	.	.	8a\	.
8d/	.	.	8f#\	.
8A/J	.	.	8a\J	.
=389	=389	=389	=389	=389
8d/L	2D\]	2ff#/]	8f#\L	.
8A/	.	.	8a\	.
8d/	.	.	8f#\	.
8A/	.	.	8a\	.
8c#/	4C#\	(4ee#/	8e#\	.
8A/J	.	.	8a\J	.
=390	=390	=390	=390	=390
8d/L	2D\	2ff#/	8f#\L	.
8A/	.	.	8a\	.
8d/	.	.	8f#\	.
8A/	.	.	8a\	.
8e/	4E\	4gg/	8g\	.
8A/J	.	.	8a\J	.
=391	=391	=391	=391	=391
8d/L	2D\	2ff#/	8f#\L	.
8A/	.	.	8a\	.
8d/	.	.	8f#\	.
8A/	.	.	8a\	.
8c#/	4C#\	4een/	8en\	.
8F#/J	.	.	8a#\J	.
=392	=392	=392	=392	=392
8B/L	[2.BB\	[2.dd/)	8d\L	.
8F#/	.	.	8f#\	.
8B/	.	.	8d\	.
8F#/	.	.	8f#\	.
8B/	.	.	8d\	.
8F#/J	.	.	8f#\J	.
=393	=393	=393	=393	=393
8B/L	2BB\]	2dd/]	8d\L	<
8F#/	.	.	8f#\	.
8B/	.	.	8d\	.
8F#/	.	.	8f#\	.
8A#/	4AA#\	(4cc#/	8c#\	.
8F#/J	.	.	8f#\J	.
=394	=394	=394	=394	=394
8B/L	2BB\	2dd/	8d\L	.
8F#/	.	.	8f#\	.
8B/	.	.	8d\	.
8F#/	.	.	8f#\	.
8A#/	4AA#\	4cc#/	8c#\	.
8F#/J	.	.	8f#\J	.
=395	=395	=395	=395	=395
8B/L	2BB\	2dd/	8d\L	.
8F#/	.	.	8f#\	.
8B/	.	.	8d\	.
8F#/	.	.	8f#\	.
8An/	4AAn\	4dd#/	8d#\	.
8F#/J	.	.	8b\J	.
=396	=396	=396	=396	=396
8G/L	2GG\	2ee/	8e\L	.
8BB/	.	.	8b\	.
8G/	.	.	8e\	.
8BB/	.	.	8b\	.
8D#/	4DD#\	4ff#/	8f#\	.
8BB/J	.	.	8b\J	.
=397	=397	=397	=397	=397
8E/L	2EE\	2gg/	8g\L	.
8BB/	.	.	8b\	.
8E/	.	.	8g\	.
8BB/	.	.	8b\	.
8Dn/	4DDn\	4gg#/	8g#\	.
8BB/J	.	.	8ee\J	.
=398	=398	=398	=398	=398
8C#/L	2CC#\	2aa/	8a\L	.
8EE/	.	.	8ee\	.
8C#/	.	.	8a\	.
8EE/	.	.	8ee\	.
8GG#/	4GGG#\	4bb/	8b\	f
8EE/J	.	.	8ee\J	.
=399	=399	=399	=399	=399
8AA/L	2AAA\	2cccn/	8ccn\L	.
8EE/	.	.	8ee\	.
8AA/	.	.	8cc\	.
8EE/	.	.	8ee\	.
8GGn/	4GGGn\	4ccc#/)	8cc#\	.
8EE/J	.	.	8aa\J	.
*v	*v	*	*	*
*	*v	*v	*
=400	=400	=400
2.FFF#/ 2.DD/ 2.FF#/	2.dd\ 2.aa\ 2.ddd\	.
=401	=401	=401
2.r	(12ddd\L	.
.	12ccc#\	.
.	12eee\J)	.
.	(12ddd\L	.
.	12ccc#\	.
.	12bb\J)	.
.	20aa\LL	.
.	20gg\	.
.	20ff#\	.
.	20ee\	.
.	20dd\JJ	.
*clefG2	*	*
=402	=402	=402
2.B/ 2.d/ 2.g#/	2.dd\ 2.gg#\ 2.ddd\	.
=403	=403	=403
2.r	(12ddd\L	.
.	12ccc#\	.
.	12eee\J)	.
.	(12ddd\L	.
.	12ccc#\	.
.	12bb\J)	.
.	(20aa\LL	.
.	20gg#\	.
.	20ff#\	.
.	20ee\	.
.	20dd\JJ)	.
=404	=404	=404
2.A/ 2.d/ 2.f#/ 2.a/	2.dd\ 2.ff#\ 2.aa\ 2.ddd\	.
=405	=405	=405
2.r	(12ddd\L	.
.	12ccc#\	.
.	12eee\J)	.
.	(12ddd\L	.
.	12ccc#\	.
.	12bb\J)	.
.	(20aa\LL	.
.	20ggn\	.
.	20ff#\	.
.	20ee\	.
.	20dd\JJ)	.
=406	=406	=406
2.r	(12ddd\L	f
.	12ccc#\	.
.	12eee\J)	.
.	(12ddd\L	.
.	12ccc#\	.
.	12bb\J)	.
.	(20aa\LL	.
.	20gg\	.
.	20ff#\	.
.	20ee\	.
.	20dd\JJ)	.
*clefF4	*	*
=407	=407	=407
2.r	(12ddd\L	f
.	12ccc#\	.
.	12eee\J)	.
.	(12ddd\L	.
.	12ccc#\	.
.	12bb\J)	.
.	(20aa\LL	.
.	20gg\	.
.	20ff#\	.
.	20ee\	.
.	20dd\JJ)	.
=408	=408	=408
(12AA/L	[2.ff#\ [2.aa\	.
12BB/	.	.
12C#/J)	.	.
(12D\L	.	.
12E\	.	.
12F#\J)	.	.
(12G\L	.	.
12A\	.	.
12B\J)	.	.
*clefG2	*	*
=409	=409	=409
(12c#/L	2.ff#\_ 2.aa\_	>
12d/	.	.
12e/J)	.	.
(8e#/L	.	.
8f#/	.	.
8g/	.	.
8g#/J)	.	.
=410	=410	=410
[2.a/	4ff#\] (4aa\]	p
.	4ee\ 4gg\	.
.	4dd\ 4ff#\)	.
=411	=411	=411
*^	*	*
2a/]	2.A\	2dd\ (2ff#\	.
4gn/	.	4cc#\ 4ee\	.
*v	*v	*	*
=412	=412	=412
4d'/ 4f#'/	4dd'\)	.
4r	4r	.
4r	[4aa\	.
*clefF4	*	*
=413	=413	=413
4D''\ 4F#''\ 4A''\	2aa\]	.
4D''\ 4F#''\ 4A''\	.	.
4r	[4a/	.
=414	=414	=414
4F#''\ 4A''\ 4d''\	2a/]	.
4F#''\ 4A''\ 4d''\	.	.
4r	[4dd\	.
=415	=415	=415
4A''\ 4e''\	(4dd\]	.
4A''\ 4e''\	4cc#\)	.
4r	[4gg\	.
=416	=416	=416
4d''\ 4f#''\	(4gg\]	.
4d''\ 4f#''\	4ff#\)	.
4r	[4ddd\	.
*clefG2	*	*
=417	=417	=417
4f#''/ 4ccn''/	2ddd\]	.
4f#''/ 4cc''/	.	.
4r	[4dd\	.
=418	=418	=418
4g''/ 4b''/	2dd\]	.
4g''/ 4b''/	.	.
4r	[4bb\	.
=419	=419	=419
4a''/ 4cc#''/	4bb\]	.
4a''/ 4cc#''/	4aa''\	.
4r	4gg''\	.
=420	=420	=420
4d/ 4dd/	(4ff#\	.
4r	4dd\)	.
4r	[4a\ [4aa\	.
*clefF4	*	*
=421	=421	=421
4DD''/ 4AA''/	2a\] 2aa\]	.
4DD''/ 4AA''/	.	.
4r	([4A/ [4a/	.
=422	=422	=422
4FF#''/ 4D''/	2A/]) 2a/]	.
4FF#''/ 4D''/	.	.
4r	[4d/ [4dd/	.
=423	=423	=423
4AA''/ 4E''/	4d/] 4dd/]	.
4AA''/ 4E''/	4c#/ 4cc#/	.
4r	[4g\ [4gg\	.
=424	=424	=424
4D''\ 4F#''\	4g\] (4gg\]	.
4D''\ 4F#''\	4f#\ 4ff#\)	.
4r	[4dd\ [4ddd\	.
=425	=425	=425
4F#''\ 4cn''\	2dd\] 2ddd\]	.
4F#''\ 4c''\	.	.
4r	[4d/ [4dd/	.
=426	=426	=426
4G''\ 4B''\	2d/] 2dd/]	.
4G''\ 4B''\	.	.
4r	[4b\ [4bb\	.
=427	=427	=427
4A''\ 4c#''\	4b\] 4bb\]	.
4A''\ 4c#''\	4a''\ 4aa''\	.
4r	4g''\ 4gg''\	.
=428	=428	=428
4D''\ 4d''\	4f#\ (4ff#\	.
4D''\ 4d''\	4dd\)	.
4r	[4dd\ [4ddd\	.
=429	=429	=429
4F#\ 4cn\	2dd\] 2ddd\]	<
4F#'\ 4c'\	.	.
4r	[4d/ [4dd/	.
=430	=430	=430
4G''\ 4B''\	2d/] 2dd/]	.
4G''\ 4B''\	.	.
4r	[4b\ [4bb\	.
=431	=431	=431
4A''\ 4c#''\	4b\] 4bb\]	.
4A''\ 4c#''\	4a''\ 4aa''\	.
4r	4g''\ 4gg''\	.
=432	=432	=432
4D''\ 4d''\	4f#\ (4ff#\	.
4D''\ 4d''\	4dd\)	.
4r	[4b\ [4bb\	.
=433	=433	=433
4A''\ 4c#''\	4b\] 4bb\]	.
4A''\ 4c#''\	4a''\ 4aa''\	.
4r	4g''\ 4gg''\	.
=434	=434	=434
4D''\ 4d''\	4f#\ (4ff#\	.
4D''\ 4d''\	4dd\)	.
4r	[4b/	f
=435	=435	=435
4AA\ 4C#\ 4E\ 4G\	4b/]	.
4r	4a''/	.
4r	4g''/	.
=436	=436	=436
2.r	(4f#'/	>
.	4e'/	.
.	4d'/)	.
=437	=437	=437
2.r	(4c#'/	.
.	4B'/	.
.	4B-'/)	.
=438	=438	=438
*^	*	*
4A'/	2.r	2.r	.
4G#'/	.	.	.
4Gn'/	.	.	.
=439	=439	=439	=439
2.D\	4DD\ 4F#\	4r	.
.	4DD\	4r	.
.	4DD\	4r	.
=440	=440	=440	=440
2.FF#/	4DD\	2.cn/ [2.a/	pp
.	4DD\	.	.
.	4DD\	.	.
=441	=441	=441	=441
*	*	*^	*
2.GG/	4DD\	(4a/]	2.B\	.
.	4DD\	[2g/)	.	.
.	4DD\	.	.	.
*	*	*v	*v	*
=442	=442	=442	=442
2.BB/ (2.G/	4DD\	(2g/]	.
.	4DD\	.	.
.	4DD\	8f#/L	.
.	.	8e/J)	.
=443	=443	=443	=443
2.E/ 2.G/	4DD\	2d/	.
.	4DD\	.	.
.	4DD\	4c#/	.
=444	=444	=444	=444
2.C#/ 2.G/	4DD\	2B/	.
.	4DD\	.	.
.	4DD\	4A/	.
=445	=445	=445	=445
2.D/ 2.F#/	4DD\	2.A/	.
.	4DD\	.	.
.	4DD\	.	.
=446	=446	=446	=446
2.FF#/	4DD\	2.A/ 2.d/	.
.	4DD\	.	.
.	4DD\	.	.
=447	=447	=447	=447
2.AA/	4DD\	2c#/ 2e/	.
.	4DD\	.	.
.	4DD\	8d/ 8f#/L	<
.	.	8e/ 8g/J	.
=448	=448	=448	=448
4D''/)	4DD\	4d''/ 4f#''/	.
4r	4DD\	4r	.
4r	4DD\	4a''/	.
=449	=449	=449	=449
(2.AA/	4DD\	(2c#/ 2e/	.
.	4DD\	.	.
.	4DD\	8d/ 8f#/L	<
.	.	8e/) 8g/J	.
=450	=450	=450	=450
4D''/)	4DD\	4d''/ 4f#''/	.
4r	4DD\	4r	.
4r	4DD\	4dd''\	.
=451	=451	=451	=451
(2.AA/	4DD\	(2c#/ 2e/	.
.	4DD\	.	.
.	4DD\	8d/ 8f#/L	.
.	.	8e/) 8g/J	.
=452	=452	=452	=452
4D''/)	4DD\	4d''/ 4f#''/	.
4r	4DD\	4r	.
4r	4DD\	4ff#''\	.
=453	=453	=453	=453
(2.AA/	4DD\	(2c#/ 2e/	.
.	4DD\	.	.
.	4DD\	8d/ 8f#/L	.
.	.	8e/) 8g/J	.
=454	=454	=454	=454
4D/)	4DD\	4d''/ 4f#''/	.
4r	4DD\	4r	.
4r	4DD\	4aa''\	.
=455	=455	=455	=455
(2.AA/	4DD\	(2c#/ 2e/	.
.	4DD\	.	.
.	4DD\	8d/ 8f#/L	.
.	.	8e/) 8g/J	.
=456	=456	=456	=456
2.D/	4DD\	4d''/ 4f#''/	.
.	4DD\	4r	.
.	4DD\	4ff#''\ 4ddd''\	.
=457	=457	=457	=457
2.AA/	4DD\	4r	.
.	4DD\	4r	.
.	4DD\	4ff#''\ 4ddd''\	>
=458	=458	=458	=458
2.FF#/	4DD\	4r	.
.	4DD\	4r	.
.	4DD\)	4ff#''\ 4ddd''\	.
*v	*v	*	*
=459	=459	=459
4DD\	4ff#''\ 4ddd''\	p
4r	4r	.
4r	4r	.
=460	=460	=460
4A''\ 4e''\	4g''/ 4cc#''/	pp
4r	4r	.
4r	4r	.
=461	=461	=461
4D''\ 4d''\	4f#''/ 4dd''/	.
4r	4r	.
4r	4r	.
=462	=462	=462
2.r;	2.r;	.
==	==	==
*-	*-	*-
